;Generated with Cura_SteamEngine 15.01
; Default start code
G28 ; Home extruder
G1 Z15 F400
M107 ; Turn off fan
G90 ; Absolute positioning
M82 ; Extruder in absolute mode
M190 S50
; Activate all used extruder
M104 T0 S210
G92 E0 ; Reset extruder position
; Wait for all used extruders to reach temperature
M109 T0 S210
;Layer count: 64
;LAYER:0
M107
G0 F9000 X98.595 Y99.361 Z0.300
;TYPE:SKIRT
G1 F1800 X99.176 Y98.867 E0.03805
G1 X99.817 Y98.475 E0.07553
G1 X100.508 Y98.189 E0.11284
G1 X101.386 Y97.975 E0.15793
G1 X117.199 Y97.963 E0.94684
G1 X118.146 Y97.963 E0.99409
G1 X118.755 Y98.010 E1.02456
G1 X119.491 Y98.189 E1.06235
G1 X120.182 Y98.475 E1.09966
G1 X120.823 Y98.867 E1.13715
G1 X121.404 Y99.361 E1.17520
G1 X121.889 Y99.933 E1.21261
G1 X122.284 Y100.571 E1.25005
G1 X122.579 Y101.282 E1.28845
G1 X122.786 Y102.160 E1.33346
G1 X122.800 Y112.296 E1.83914
G1 X122.780 Y113.380 E1.89323
G1 X122.582 Y114.234 E1.93697
G1 X122.284 Y114.955 E1.97589
G1 X121.889 Y115.593 E2.01333
G1 X121.404 Y116.165 E2.05074
G1 X120.823 Y116.659 E2.08879
G1 X120.182 Y117.051 E2.12628
G1 X119.480 Y117.342 E2.16419
G1 X118.601 Y117.550 E2.20925
G1 X102.802 Y117.563 E2.99747
G1 X101.843 Y117.563 E3.04531
G1 X101.245 Y117.513 E3.07525
G1 X100.519 Y117.342 E3.11246
G1 X99.817 Y117.051 E3.15038
G1 X99.176 Y116.659 E3.18786
G1 X98.595 Y116.165 E3.22591
G1 X98.110 Y115.593 E3.26332
G1 X97.715 Y114.955 E3.30076
G1 X97.420 Y114.244 E3.33916
G1 X97.213 Y113.366 E3.38417
G1 X97.200 Y103.233 E3.88971
G1 X97.218 Y102.149 E3.94380
G1 X97.417 Y101.292 E3.98769
G1 X97.715 Y100.571 E4.02661
G1 X98.110 Y99.933 E4.06405
G1 X98.595 Y99.361 E4.10146
G0 F9000 X98.879 Y99.645
G1 F1800 X99.412 Y99.192 E4.13636
G1 X99.999 Y98.832 E4.17071
G1 X100.633 Y98.570 E4.20494
G1 X101.434 Y98.375 E4.24607
G1 X117.199 Y98.363 E5.03259
G1 X118.131 Y98.363 E5.07909
G1 X118.692 Y98.406 E5.10716
G1 X119.366 Y98.570 E5.14176
G1 X120.000 Y98.832 E5.17599
G1 X120.587 Y99.192 E5.21034
G1 X121.120 Y99.645 E5.24524
G1 X121.565 Y100.169 E5.27954
G1 X121.927 Y100.754 E5.31386
G1 X122.197 Y101.406 E5.34907
G1 X122.386 Y102.207 E5.39013
G1 X122.400 Y112.292 E5.89327
G1 X122.381 Y113.331 E5.94511
G1 X122.200 Y114.112 E5.98511
G1 X121.927 Y114.772 E6.02074
G1 X121.565 Y115.357 E6.05507
G1 X121.120 Y115.881 E6.08936
G1 X120.587 Y116.334 E6.12426
G1 X120.000 Y116.694 E6.15862
G1 X119.356 Y116.960 E6.19338
G1 X118.555 Y117.150 E6.23445
G1 X102.801 Y117.163 E7.02042
G1 X101.859 Y117.163 E7.06742
G1 X101.308 Y117.117 E7.09500
G1 X100.643 Y116.960 E7.12909
G1 X99.999 Y116.694 E7.16385
G1 X99.412 Y116.334 E7.19821
G1 X98.879 Y115.881 E7.23311
G1 X98.434 Y115.357 E7.26740
G1 X98.072 Y114.772 E7.30172
G1 X97.802 Y114.120 E7.33693
G1 X97.612 Y113.319 E7.37800
G1 X97.600 Y103.236 E7.88105
G1 X97.618 Y102.198 E7.93284
G1 X97.799 Y101.414 E7.97298
G1 X98.072 Y100.754 E8.00862
G1 X98.434 Y100.169 E8.04294
G1 X98.879 Y99.645 E8.07724
G0 F9000 X99.163 Y99.928
G1 F1800 X99.647 Y99.517 E8.10891
G1 X100.181 Y99.190 E8.14015
G1 X100.757 Y98.952 E8.17125
G1 X101.482 Y98.775 E8.20848
G1 X117.199 Y98.763 E8.99260
G1 X118.115 Y98.763 E9.03830
G1 X118.629 Y98.803 E9.06402
G1 X119.242 Y98.952 E9.09550
G1 X119.818 Y99.190 E9.12659
G1 X120.352 Y99.517 E9.15783
G1 X120.836 Y99.928 E9.18951
G1 X121.240 Y100.405 E9.22069
G1 X121.570 Y100.937 E9.25193
G1 X121.815 Y101.529 E9.28389
G1 X121.987 Y102.254 E9.32107
G1 X122.000 Y112.289 E9.82172
G1 X121.982 Y113.282 E9.87126
G1 X121.818 Y113.990 E9.90752
G1 X121.570 Y114.589 E9.93987
G1 X121.240 Y115.121 E9.97110
G1 X120.836 Y115.598 E10.00229
G1 X120.352 Y116.009 E10.03396
G1 X119.818 Y116.336 E10.06520
G1 X119.233 Y116.578 E10.09679
G1 X118.508 Y116.750 E10.13396
G1 X102.801 Y116.763 E10.91759
G1 X101.876 Y116.763 E10.96374
G1 X101.371 Y116.721 E10.98902
G1 X100.766 Y116.578 E11.02003
G1 X100.181 Y116.336 E11.05162
G1 X99.647 Y116.009 E11.08286
G1 X99.163 Y115.598 E11.11454
G1 X98.759 Y115.121 E11.14572
G1 X98.429 Y114.589 E11.17695
G1 X98.184 Y113.997 E11.20892
G1 X98.012 Y113.272 E11.24609
G1 X98.000 Y103.239 E11.74664
G1 X98.017 Y102.247 E11.79614
G1 X98.181 Y101.536 E11.83254
G1 X98.429 Y100.937 E11.86489
G1 X98.759 Y100.405 E11.89612
G1 X99.163 Y99.928 E11.92731
G0 F9000 X99.447 Y100.212
G1 F1800 X99.882 Y99.842 E11.95580
G1 X100.363 Y99.548 E11.98392
G1 X100.882 Y99.333 E12.01195
G1 X101.530 Y99.175 E12.04523
G1 X117.199 Y99.163 E12.82696
G1 X118.100 Y99.163 E12.87191
G1 X118.566 Y99.199 E12.89523
G1 X119.117 Y99.333 E12.92352
G1 X119.636 Y99.548 E12.95154
G1 X120.117 Y99.842 E12.97967
G1 X120.552 Y100.212 E13.00816
G1 X120.916 Y100.641 E13.03623
G1 X121.213 Y101.120 E13.06435
G1 X121.433 Y101.652 E13.09307
G1 X121.587 Y102.301 E13.12635
G1 X121.600 Y112.285 E13.62445
G1 X121.583 Y113.232 E13.67170
G1 X121.436 Y113.867 E13.70422
G1 X121.213 Y114.406 E13.73332
G1 X120.916 Y114.885 E13.76144
G1 X120.552 Y115.314 E13.78951
G1 X120.117 Y115.684 E13.81800
G1 X119.636 Y115.978 E13.84613
G1 X119.110 Y116.196 E13.87453
G1 X118.461 Y116.350 E13.90781
G1 X102.801 Y116.363 E14.68909
G1 X101.893 Y116.363 E14.73439
G1 X101.434 Y116.325 E14.75737
G1 X100.889 Y116.196 E14.78531
G1 X100.363 Y115.978 E14.81372
G1 X99.882 Y115.684 E14.84184
G1 X99.447 Y115.314 E14.87033
G1 X99.083 Y114.885 E14.89840
G1 X98.786 Y114.406 E14.92652
G1 X98.566 Y113.874 E14.95524
G1 X98.412 Y113.225 E14.98852
G1 X98.400 Y103.243 E15.48652
G1 X98.416 Y102.296 E15.53378
G1 X98.563 Y101.659 E15.56639
G1 X98.786 Y101.120 E15.59549
G1 X99.083 Y100.641 E15.62361
G1 X99.447 Y100.212 E15.65168
G0 F9000 X99.731 Y100.496
G1 F1800 X100.118 Y100.167 E15.67702
G1 X100.545 Y99.905 E15.70202
G1 X101.006 Y99.714 E15.72691
G1 X101.578 Y99.575 E15.75628
G1 X117.199 Y99.563 E16.53561
G1 X118.084 Y99.563 E16.57977
G1 X118.503 Y99.595 E16.60073
G1 X118.993 Y99.714 E16.62589
G1 X119.454 Y99.905 E16.65078
G1 X119.881 Y100.167 E16.67578
G1 X120.268 Y100.496 E16.70112
G1 X120.592 Y100.877 E16.72607
G1 X120.855 Y101.303 E16.75105
G1 X121.051 Y101.776 E16.77659
G1 X121.187 Y102.348 E16.80593
G1 X121.200 Y112.282 E17.30154
G1 X121.183 Y113.183 E17.34649
G1 X121.053 Y113.745 E17.37527
G1 X120.855 Y114.223 E17.40109
G1 X120.592 Y114.649 E17.42606
G1 X120.268 Y115.030 E17.45101
G1 X119.881 Y115.359 E17.47636
G1 X119.454 Y115.621 E17.50135
G1 X118.986 Y115.814 E17.52661
G1 X118.414 Y115.950 E17.55594
G1 X102.801 Y115.963 E18.33487
G1 X101.909 Y115.963 E18.37938
G1 X101.497 Y115.929 E18.40000
G1 X101.013 Y115.814 E18.42482
G1 X100.545 Y115.621 E18.45008
G1 X100.118 Y115.359 E18.47507
G1 X99.731 Y115.030 E18.50041
G1 X99.407 Y114.649 E18.52536
G1 X99.144 Y114.223 E18.55034
G1 X98.948 Y113.750 E18.57588
G1 X98.812 Y113.178 E18.60522
G1 X98.800 Y103.246 E19.10073
G1 X98.815 Y102.345 E19.14568
G1 X98.946 Y101.781 E19.17457
G1 X99.144 Y101.303 E19.20038
G1 X99.407 Y100.877 E19.22536
G1 X99.731 Y100.496 E19.25031
G0 F9000 X100.015 Y100.779
G1 F1800 X100.353 Y100.492 E19.27244
G1 X100.727 Y100.263 E19.29431
G1 X101.131 Y100.096 E19.31612
G1 X101.626 Y99.975 E19.34155
G1 X117.199 Y99.963 E20.11849
G1 X118.069 Y99.963 E20.16189
G1 X118.440 Y99.992 E20.18046
G1 X118.868 Y100.096 E20.20243
G1 X119.272 Y100.263 E20.22424
G1 X119.646 Y100.492 E20.24612
G1 X119.984 Y100.779 E20.26824
G1 X120.267 Y101.113 E20.29008
G1 X120.498 Y101.486 E20.31197
G1 X120.669 Y101.899 E20.33427
G1 X120.787 Y102.395 E20.35971
G1 X120.800 Y112.278 E20.85277
G1 X120.784 Y113.134 E20.89549
G1 X120.671 Y113.623 E20.92053
G1 X120.498 Y114.040 E20.94305
G1 X120.267 Y114.413 E20.96494
G1 X119.984 Y114.747 E20.98678
G1 X119.646 Y115.034 E21.00890
G1 X119.272 Y115.263 E21.03078
G1 X118.863 Y115.432 E21.05286
G1 X118.367 Y115.550 E21.07829
G1 X102.801 Y115.563 E21.85489
G1 X101.926 Y115.563 E21.89854
G1 X101.560 Y115.533 E21.91686
G1 X101.136 Y115.432 E21.93861
G1 X100.727 Y115.263 E21.96068
G1 X100.353 Y115.034 E21.98256
G1 X100.015 Y114.747 E22.00468
G1 X99.732 Y114.413 E22.02653
G1 X99.501 Y114.040 E22.04841
G1 X99.330 Y113.627 E22.07072
G1 X99.212 Y113.131 E22.09615
G1 X99.200 Y103.249 E22.58917
G1 X99.214 Y102.394 E22.63183
G1 X99.328 Y101.903 E22.65698
G1 X99.501 Y101.486 E22.67950
G1 X99.732 Y101.113 E22.70139
G1 X100.015 Y100.779 E22.72323
G0 F9000 X100.298 Y101.063
G1 F1800 X100.588 Y100.817 E22.74220
G1 X100.909 Y100.620 E22.76099
G1 X101.255 Y100.477 E22.77967
G1 X101.675 Y100.375 E22.80123
G1 X117.199 Y100.363 E23.57573
G1 X118.054 Y100.363 E23.61838
G1 X118.377 Y100.388 E23.63455
G1 X118.744 Y100.477 E23.65339
G1 X119.090 Y100.620 E23.67207
G1 X119.411 Y100.817 E23.69086
G1 X119.701 Y101.063 E23.70983
G1 X119.943 Y101.349 E23.72852
G1 X120.141 Y101.669 E23.74729
G1 X120.287 Y102.022 E23.76635
G1 X120.387 Y102.442 E23.78789
G1 X120.400 Y112.275 E24.27846
G1 X120.385 Y113.085 E24.31888
G1 X120.289 Y113.500 E24.34013
G1 X120.141 Y113.857 E24.35941
G1 X119.943 Y114.177 E24.37819
G1 X119.701 Y114.463 E24.39688
G1 X119.411 Y114.709 E24.41585
G1 X119.090 Y114.906 E24.43464
G1 X118.740 Y115.050 E24.45352
G1 X118.320 Y115.150 E24.47506
G1 X102.801 Y115.163 E25.24931
G1 X101.942 Y115.163 E25.29216
G1 X101.623 Y115.137 E25.30813
G1 X101.259 Y115.050 E25.32680
G1 X100.909 Y114.906 E25.34568
G1 X100.588 Y114.709 E25.36447
G1 X100.298 Y114.463 E25.38345
G1 X100.056 Y114.177 E25.40214
G1 X99.858 Y113.857 E25.42091
G1 X99.712 Y113.504 E25.43997
G1 X99.612 Y113.084 E25.46151
G1 X99.600 Y103.252 E25.95203
G1 X99.614 Y102.443 E25.99240
G1 X99.710 Y102.026 E26.01375
G1 X99.858 Y101.669 E26.03303
G1 X100.056 Y101.349 E26.05180
G1 X100.298 Y101.063 E26.07049
G0 F9000 X100.582 Y101.347
G1 F1800 X100.824 Y101.142 E26.08631
G1 X101.091 Y100.978 E26.10195
G1 X101.380 Y100.859 E26.11754
G1 X101.723 Y100.775 E26.13516
G1 X118.038 Y100.763 E26.94912
G1 X118.314 Y100.784 E26.96293
G1 X118.619 Y100.859 E26.97860
G1 X118.908 Y100.978 E26.99419
G1 X119.175 Y101.142 E27.00982
G1 X119.417 Y101.347 E27.02564
G1 X119.619 Y101.585 E27.04122
G1 X119.784 Y101.852 E27.05688
G1 X119.906 Y102.146 E27.07276
G1 X119.987 Y102.489 E27.09034
G1 X120.000 Y112.272 E27.57842
G1 X119.986 Y113.035 E27.61649
G1 X119.907 Y113.378 E27.63405
G1 X119.784 Y113.674 E27.65004
G1 X119.619 Y113.941 E27.66570
G1 X119.417 Y114.179 E27.68128
G1 X119.175 Y114.384 E27.69710
G1 X118.908 Y114.548 E27.71273
G1 X118.616 Y114.669 E27.72850
G1 X118.273 Y114.750 E27.74608
G1 X101.959 Y114.763 E28.55999
G1 X101.686 Y114.740 E28.57366
G1 X101.383 Y114.669 E28.58919
G1 X101.091 Y114.548 E28.60496
G1 X100.824 Y114.384 E28.62059
G1 X100.582 Y114.179 E28.63641
G1 X100.380 Y113.941 E28.65199
G1 X100.215 Y113.674 E28.66765
G1 X100.093 Y113.380 E28.68353
G1 X100.012 Y113.037 E28.70111
G1 X100.000 Y103.255 E29.18914
G1 X100.013 Y102.492 E29.22721
G1 X100.092 Y102.148 E29.24482
G1 X100.215 Y101.852 E29.26081
G1 X100.380 Y101.585 E29.27647
G1 X100.582 Y101.347 E29.29204
G0 F9000 X100.705 Y101.821
G1 F1800 X100.866 Y101.630 E29.30450
G1 X101.059 Y101.467 E29.31711
G1 X101.273 Y101.336 E29.32962
G1 X101.504 Y101.240 E29.34211
G1 X101.771 Y101.175 E29.35581
G1 X118.023 Y101.163 E30.16663
G1 X118.251 Y101.181 E30.17804
G1 X118.495 Y101.240 E30.19056
G1 X118.726 Y101.336 E30.20305
G1 X118.940 Y101.467 E30.21556
G1 X119.133 Y101.630 E30.22817
G1 X119.294 Y101.821 E30.24063
G1 X119.427 Y102.035 E30.25320
G1 X119.524 Y102.269 E30.26584
G1 X119.587 Y102.536 E30.27952
G1 X119.600 Y112.268 E30.76506
G1 X119.587 Y112.986 E30.80088
G1 X119.524 Y113.256 E30.81472
G1 X119.427 Y113.491 E30.82740
G1 X119.294 Y113.705 E30.83997
G1 X119.133 Y113.896 E30.85243
G1 X118.940 Y114.059 E30.86504
G1 X118.726 Y114.190 E30.87755
G1 X118.493 Y114.287 E30.89014
G1 X118.226 Y114.350 E30.90383
G1 X101.975 Y114.363 E31.71460
G1 X101.749 Y114.344 E31.72591
G1 X101.506 Y114.287 E31.73836
G1 X101.273 Y114.190 E31.75096
G1 X101.059 Y114.059 E31.76347
G1 X100.866 Y113.896 E31.77608
G1 X100.705 Y113.705 E31.78854
G1 X100.572 Y113.491 E31.80111
G1 X100.475 Y113.257 E31.81375
G1 X100.412 Y112.990 E31.82743
G1 X100.400 Y103.258 E32.31297
G1 X100.412 Y102.541 E32.34874
G1 X100.475 Y102.270 E32.36262
G1 X100.572 Y102.035 E32.37531
G1 X100.705 Y101.821 E32.38788
G0 F9000 X101.029 Y102.057
G1 F1800 X101.150 Y101.914 E32.39722
G1 X101.294 Y101.792 E32.40664
G1 X101.455 Y101.693 E32.41607
G1 X101.629 Y101.621 E32.42546
G1 X101.819 Y101.575 E32.43522
G1 X118.008 Y101.563 E33.24289
G1 X118.188 Y101.577 E33.25190
G1 X118.370 Y101.621 E33.26124
G1 X118.544 Y101.693 E33.27063
G1 X118.705 Y101.792 E33.28006
G1 X118.849 Y101.914 E33.28948
G1 X118.970 Y102.057 E33.29882
G1 X119.070 Y102.218 E33.30828
G1 X119.142 Y102.392 E33.31767
G1 X119.187 Y102.583 E33.32746
G1 X119.200 Y112.265 E33.81050
G1 X119.188 Y112.937 E33.84403
G1 X119.142 Y113.133 E33.85408
G1 X119.070 Y113.308 E33.86352
G1 X118.970 Y113.469 E33.87297
G1 X118.849 Y113.612 E33.88232
G1 X118.705 Y113.734 E33.89174
G1 X118.544 Y113.833 E33.90116
G1 X118.370 Y113.905 E33.91056
G1 X118.179 Y113.950 E33.92035
G1 X101.992 Y113.963 E34.72792
G1 X101.812 Y113.948 E34.73693
G1 X101.629 Y113.905 E34.74631
G1 X101.455 Y113.833 E34.75571
G1 X101.294 Y113.734 E34.76514
G1 X101.150 Y113.612 E34.77455
G1 X101.029 Y113.469 E34.78390
G1 X100.929 Y113.308 E34.79335
G1 X100.857 Y113.134 E34.80275
G1 X100.812 Y112.943 E34.81254
G1 X100.800 Y103.261 E35.29558
G1 X100.811 Y102.590 E35.32906
G1 X100.857 Y102.393 E35.33915
G1 X100.929 Y102.218 E35.34859
G1 X101.029 Y102.057 E35.35805
G0 F9000 X102.555 Y103.490
G1 F1800 X102.487 Y103.599 E35.36445
G1 X102.440 Y103.714 E35.37065
G1 X102.412 Y103.831 E35.37665
G1 X102.399 Y111.270 E35.74779
G1 X102.411 Y111.692 E35.76885
G1 X102.440 Y111.812 E35.77501
G1 X102.487 Y111.927 E35.78121
G1 X102.555 Y112.036 E35.78762
G1 X102.631 Y112.126 E35.79349
G1 X102.729 Y112.209 E35.79990
G1 X102.838 Y112.276 E35.80628
G1 X102.951 Y112.322 E35.81237
G1 X103.068 Y112.350 E35.81837
G1 X116.795 Y112.363 E36.50322
G1 X116.920 Y112.353 E36.50947
G1 X117.048 Y112.322 E36.51604
G1 X117.161 Y112.276 E36.52213
G1 X117.270 Y112.209 E36.52851
G1 X117.368 Y112.126 E36.53492
G1 X117.444 Y112.036 E36.54080
G1 X117.512 Y111.927 E36.54721
G1 X117.559 Y111.812 E36.55341
G1 X117.587 Y111.695 E36.55941
G1 X117.600 Y104.256 E36.93054
G1 X117.588 Y103.834 E36.95160
G1 X117.559 Y103.714 E36.95776
G1 X117.512 Y103.599 E36.96396
G1 X117.444 Y103.490 E36.97037
G1 X117.368 Y103.400 E36.97625
G1 X117.270 Y103.317 E36.98265
G1 X117.161 Y103.250 E36.98904
G1 X117.043 Y103.202 E36.99539
G1 X116.934 Y103.175 E37.00099
G1 X103.201 Y103.163 E37.68614
G1 X103.075 Y103.173 E37.69244
G1 X102.956 Y103.202 E37.69855
G1 X102.838 Y103.250 E37.70491
G1 X102.729 Y103.317 E37.71129
G1 X102.631 Y103.400 E37.71770
G1 X102.555 Y103.490 E37.72358
G0 F9000 X103.219 Y103.563
G1 F1800 X103.139 Y103.569 E37.72758
G1 X103.074 Y103.585 E37.73092
G1 X103.022 Y103.606 E37.73372
G1 X102.965 Y103.641 E37.73705
G1 X102.915 Y103.684 E37.74034
G1 X102.879 Y103.726 E37.74310
G1 X102.842 Y103.786 E37.74662
G1 X102.822 Y103.835 E37.74926
G1 X102.812 Y103.877 E37.75141
G1 X102.799 Y111.253 E38.11941
G1 X102.810 Y111.642 E38.13882
G1 X102.822 Y111.691 E38.14134
G1 X102.842 Y111.740 E38.14398
G1 X102.879 Y111.800 E38.14749
G1 X102.915 Y111.842 E38.15025
G1 X102.965 Y111.885 E38.15354
G1 X103.022 Y111.920 E38.15688
G1 X103.072 Y111.940 E38.15957
G1 X103.114 Y111.950 E38.16172
G1 X116.774 Y111.963 E38.84322
G1 X116.861 Y111.956 E38.84758
G1 X116.927 Y111.940 E38.85097
G1 X116.977 Y111.920 E38.85365
G1 X117.034 Y111.885 E38.85699
G1 X117.084 Y111.842 E38.86028
G1 X117.120 Y111.800 E38.86304
G1 X117.157 Y111.740 E38.86656
G1 X117.177 Y111.691 E38.86920
G1 X117.187 Y111.649 E38.87135
G1 X117.200 Y104.273 E39.23934
G1 X117.189 Y103.883 E39.25881
G1 X117.177 Y103.835 E39.26127
G1 X117.157 Y103.786 E39.26391
G1 X117.120 Y103.726 E39.26743
G1 X117.084 Y103.684 E39.27019
G1 X117.034 Y103.641 E39.27348
G1 X116.977 Y103.606 E39.27682
G1 X116.925 Y103.585 E39.27962
G1 X116.884 Y103.575 E39.28172
G1 X103.219 Y103.563 E39.96347
G0 F9000 X103.237 Y103.963
G1 F1800 X103.212 Y103.965 E39.96472
G1 X103.199 Y111.241 E40.32772
G1 X103.208 Y111.550 E40.34315
G1 X116.754 Y111.563 E41.01896
